svgs/sharp-solid/blinds.svg

<svg xmlns="http://www.w3.org/2000/svg" viewBox="0 0 512 512"><!--! Font Awesome Pro 6.6.0 by @fontawesome - https://fontawesome.com License - https://fontawesome.com/license (Commercial License) Copyright 2024 Fonticons, Inc. --><path d="M32 0L0 0 0 64l16 0L0 128l128 0 0-64 32 0 0 64 352 0L496 64l16 0 0-64L480 0 32 0zM24 160L0 256l98.7 0c4.8-13.6 15.6-24.4 29.3-29.3l0-66.7L24 160zM144 320c-20.9 0-38.7-13.4-45.3-32L24 288 0 384l512 0-24-96-298.7 0c-6.6 18.6-24.4 32-45.3 32zm16-93.3c13.6 4.8 24.4 15.6 29.3 29.3L512 256l-24-96-328 0 0 66.7zM0 512l512 0-24-96L24 416 0 512z"/></svg>

<svg xmlns="http://www.w3.org/2000/svg" viewBox="0 0 512 512"><!--! Font Awesome Pro 6.4.2 by @fontawesome - https://fontawesome.com License - https://fontawesome.com/license (Commercial License) Copyright 2023 Fonticons, Inc. --><path d="M32 0H0V64H16L0 128H128V64h32v64H512L496 64h16V0H480 32zM24 160L0 256H98.7c4.8-13.6 15.6-24.4 29.3-29.3V160H24zM144 320c-20.9 0-38.7-13.4-45.3-32H24L0 384H512l-24-96H189.3c-6.6 18.6-24.4 32-45.3 32zm16-93.3c13.6 4.8 24.4 15.6 29.3 29.3H512l-24-96H160v66.7zM0 512H512l-24-96H24L0 512z"/></svg>
